public/logo.svg

<svg width="136" height="32" fill="none" xmlns="http://www.w3.org/2000/svg"><path d="M21.2997 15.8058c22.333 1.5704 14.2613 16.2818.4309 15.6642-13.83106-.6192-23.58878-17.3105-.4309-15.6642Zm20.1511-7.05104c6.8796 6.58324-.8492 14.48914-5.8624 7.77324-5.0124-6.71524 1.2943-12.13545 5.8624-7.77324ZM23.2529.55033c9.7115 1.00146 9.1289 11.62237.7609 9.55717-8.3679-2.06516-7.1896-10.229424-.7609-9.55717ZM10.2114 11.3924C1.54078 15.6278-4.25975 6.42999 3.9607 3.82534c8.2205-2.60389 11.9992 4.76112 6.2507 7.56706ZM102.618 21.8623V10.1342c0-1.61856-1.313-2.93199-2.9316-2.93199s-2.932 1.31343-2.932 2.93199v11.7281c0 1.6186 1.3134 2.9321 2.932 2.9321s2.9316-1.3135 2.9316-2.9321ZM62.1673 9.84275c0-1.45744-1.1831-2.64052-2.6405-2.64052h-5.8949c-1.2963 0-2.3457 1.04935-2.3457 2.34561V22.4487c0 1.2963 1.0494 2.3457 2.3457 2.3457h1.1728c1.2962 0 2.3456-1.0494 2.3456-2.3457v-3.4258h1.8175c1.4849 0 2.6851-1.2037 2.6851-2.6851 0-1.4849-1.2036-2.6851-2.6851-2.6851h-1.8175v-1.1728h2.3765c1.4609.0034 2.6405-1.1797 2.6405-2.63715ZM75.7984 7.20221c-1.6186 0-2.932 1.31338-2.932 2.93199v7.1466c0 .9122-.7372 1.6495-1.6494 1.6495s-1.6495-.7373-1.6495-1.6495v-7.1466c0-1.61861-1.3135-2.93199-2.9321-2.93199-1.6186 0-2.932 1.31338-2.932 2.93199v7.1466c0 4.1494 3.3642 7.5135 7.5136 7.5135s7.5135-3.3641 7.5135-7.5135v-7.1466c0-1.61861-1.3135-2.93199-2.9321-2.93199ZM117.556 10.1342c0-1.61861-1.313-2.93199-2.932-2.93199h-7.538c-1.618 0-2.932 1.31338-2.932 2.93199 0 1.6186 1.314 2.932 2.932 2.932h.837v8.7961c0 1.6186 1.314 2.932 2.932 2.932 1.619 0 2.932-1.3134 2.932-2.932v-8.7961h.837c1.619 0 2.932-1.3099 2.932-2.932ZM126.638 7.20221c-4.732 0-8.57 3.94019-8.57 8.79599 0 4.8593 3.838 8.7961 8.57 8.7961s8.57-3.9402 8.57-8.7961c0-4.8558-3.838-8.79599-8.57-8.79599Zm0 11.82409c-1.578 0-2.857-1.3546-2.857-3.0246 0-1.6701 1.279-3.0246 2.857-3.0246 1.577 0 2.857 1.3545 2.857 3.0246 0 1.67-1.28 3.0246-2.857 3.0246ZM93.4144 19.3144c1.1214-1.286 1.8038-2.9664 1.8038-4.8044 0-4.0363-3.2715-7.30779-7.3078-7.30779-.0068 0-4.7872.00339-4.7872.00339-1.5844.04115-2.8566 1.334-2.8566 2.9286v11.7281c0 1.6186 1.3134 2.932 2.932 2.932s2.932-1.3134 2.932-2.932v-.048h1.7112c.024 0 .0446.0034.0686.0034.1578 0 .3121-.0068.4664-.0171l1.0014 1.6495c.5075.8367 1.4128 1.3477 2.3902 1.3477 2.181 0 3.5218-2.3834 2.3902-4.2489l-.7442-1.2345Zm-5.672-3.2956H85.622v-3.0212h2.117c.8333 0 1.5089.6756 1.5089 1.5089 0 .8333-.6722 1.5123-1.5055 1.5123Z" fill="#FD590D"/></svg>

<svg width="136" height="32" viewBox="0 0 136 32" fill="none" xmlns="http://www.w3.org/2000/svg">
<path d="M21.2997 15.8058C43.6327 17.3762 35.561 32.0876 21.7306 31.47C7.89954 30.8508 -1.85818 14.1595 21.2997 15.8058ZM41.4508 8.75476C48.3304 15.338 40.6016 23.2439 35.5884 16.528C30.576 9.81276 36.8827 4.39255 41.4508 8.75476ZM23.2529 0.55033C32.9644 1.55179 32.3818 12.1727 24.0138 10.1075C15.6459 8.04234 16.8242 -0.121924 23.2529 0.55033ZM10.2114 11.3924C1.54078 15.6278 -4.25975 6.42999 3.9607 3.82534C12.1812 1.22145 15.9599 8.58646 10.2114 11.3924Z" fill="#FD590D"/>
<path d="M102.618 21.8623V10.1342C102.618 8.51564 101.305 7.20221 99.6864 7.20221C98.0678 7.20221 96.7544 8.51564 96.7544 10.1342V21.8623C96.7544 23.4809 98.0678 24.7944 99.6864 24.7944C101.305 24.7944 102.618 23.4809 102.618 21.8623Z" fill="#FD590D"/>
<path d="M62.1673 9.84275C62.1673 8.38531 60.9842 7.20223 59.5268 7.20223H53.6319C52.3356 7.20223 51.2862 8.25158 51.2862 9.54784V22.4487C51.2862 23.745 52.3356 24.7944 53.6319 24.7944H54.8047C56.1009 24.7944 57.1503 23.745 57.1503 22.4487V19.0229H58.9678C60.4527 19.0229 61.6529 17.8192 61.6529 16.3378C61.6529 14.8529 60.4493 13.6527 58.9678 13.6527H57.1503V12.4799H59.5268C60.9877 12.4833 62.1673 11.3002 62.1673 9.84275Z" fill="#FD590D"/>
<path d="M75.7984 7.20221C74.1798 7.20221 72.8664 8.51559 72.8664 10.1342V17.2808C72.8664 18.193 72.1292 18.9303 71.217 18.9303C70.3048 18.9303 69.5675 18.193 69.5675 17.2808V10.1342C69.5675 8.51559 68.254 7.20221 66.6354 7.20221C65.0168 7.20221 63.7034 8.51559 63.7034 10.1342V17.2808C63.7034 21.4302 67.0676 24.7943 71.217 24.7943C75.3664 24.7943 78.7305 21.4302 78.7305 17.2808V10.1342C78.7305 8.51559 77.417 7.20221 75.7984 7.20221Z" fill="#FD590D"/>
<path d="M117.556 10.1342C117.556 8.51559 116.243 7.20221 114.624 7.20221H107.086C105.468 7.20221 104.154 8.51559 104.154 10.1342C104.154 11.7528 105.468 13.0662 107.086 13.0662H107.923V21.8623C107.923 23.4809 109.237 24.7943 110.855 24.7943C112.474 24.7943 113.787 23.4809 113.787 21.8623V13.0662H114.624C116.243 13.0662 117.556 11.7563 117.556 10.1342Z" fill="#FD590D"/>
<path d="M126.638 7.20221C121.906 7.20221 118.068 11.1424 118.068 15.9982C118.068 20.8575 121.906 24.7943 126.638 24.7943C131.37 24.7943 135.208 20.8541 135.208 15.9982C135.208 11.1424 131.37 7.20221 126.638 7.20221ZM126.638 19.0263C125.06 19.0263 123.781 17.6717 123.781 16.0017C123.781 14.3316 125.06 12.9771 126.638 12.9771C128.215 12.9771 129.495 14.3316 129.495 16.0017C129.495 17.6717 128.215 19.0263 126.638 19.0263Z" fill="#FD590D"/>
<path d="M93.4144 19.3144C94.5358 18.0284 95.2182 16.348 95.2182 14.51C95.2182 10.4737 91.9467 7.20221 87.9104 7.20221C87.9036 7.20221 83.1232 7.2056 83.1232 7.2056C81.5388 7.24675 80.2666 8.5396 80.2666 10.1342V21.8623C80.2666 23.4809 81.58 24.7943 83.1986 24.7943C84.8172 24.7943 86.1306 23.4809 86.1306 21.8623V21.8143H87.8418C87.8658 21.8143 87.8864 21.8177 87.9104 21.8177C88.0682 21.8177 88.2225 21.8109 88.3768 21.8006L89.3782 23.4501C89.8857 24.2868 90.791 24.7978 91.7684 24.7978C93.9494 24.7978 95.2902 22.4144 94.1586 20.5489L93.4144 19.3144ZM87.7424 16.0188H85.622V12.9976H87.739C88.5723 12.9976 89.2479 13.6732 89.2479 14.5065C89.2479 15.3398 88.5757 16.0188 87.7424 16.0188Z" fill="#FD590D"/>
</svg>
